ix/story_bulk.svg

<svg viewBox="0 0 24 24" fill="none" xmlns="http://www.w3.org/2000/svg" height="1em" width="1em">
  <path d="M16.42 7.95012C18.86 10.3901 18.86 14.3501 16.42 16.7901C13.98 19.2301 10.02 19.2301 7.58 16.7901C5.14 14.3501 5.14 10.3901 7.58 7.95012C10.02 5.51012 13.98 5.51012 16.42 7.95012Z" fill="#292D32"/>
  <path opacity="0.4" d="M8.24906 22.3899C8.15906 22.3899 8.05906 22.3699 7.96906 22.3399C5.71906 21.4399 3.89905 19.8499 2.67905 17.7499C1.49905 15.6999 1.02905 13.3799 1.33905 11.0199C1.38905 10.6099 1.77905 10.3199 2.17905 10.3699C2.58905 10.4199 2.87904 10.7999 2.82904 11.2099C2.56904 13.2299 2.96907 15.2299 3.97907 16.9899C5.01907 18.7899 6.58905 20.1599 8.51905 20.9299C8.89905 21.0899 9.08906 21.5198 8.93906 21.9098C8.82906 22.2098 8.53906 22.3899 8.24906 22.3899Z" fill="#292D32"/>
  <path opacity="0.4" d="M5.84961 5.22986C5.62961 5.22986 5.40961 5.12988 5.25961 4.93988C4.99961 4.60988 5.05962 4.13989 5.38962 3.88989C7.29962 2.39989 9.57961 1.60986 11.9996 1.60986C14.3596 1.60986 16.6096 2.36988 18.4996 3.80988C18.8296 4.05988 18.8896 4.52986 18.6396 4.85986C18.3896 5.18986 17.9196 5.24988 17.5896 4.99988C15.9696 3.75988 14.0396 3.10986 11.9996 3.10986C9.91961 3.10986 7.9496 3.78989 6.3096 5.06989C6.1696 5.17989 6.00961 5.22986 5.84961 5.22986Z" fill="#292D32"/>
  <path opacity="0.4" d="M15.7507 22.3901C15.4507 22.3901 15.1707 22.2101 15.0507 21.9201C14.9007 21.5401 15.0807 21.1001 15.4707 20.9401C17.4007 20.1601 18.9707 18.8001 20.0107 17.0001C21.0307 15.2401 21.4307 13.2401 21.1607 11.2201C21.1107 10.8101 21.4007 10.4301 21.8107 10.3801C22.2107 10.3301 22.6007 10.6201 22.6507 11.0301C22.9507 13.3801 22.4907 15.7101 21.3107 17.7601C20.1007 19.8601 18.2707 21.4401 16.0207 22.3501C15.9407 22.3701 15.8507 22.3901 15.7507 22.3901Z" fill="#292D32"/>
</svg>

<svg viewBox="0 0 24 24" fill="none" xmlns="http://www.w3.org/2000/svg" height="1em" width="1em">
  <path d="M16.42 7.95a6.253 6.253 0 0 1 0 8.84 6.253 6.253 0 0 1-8.84 0 6.253 6.253 0 0 1 0-8.84 6.253 6.253 0 0 1 8.84 0Z" fill="#292D32"/>
  <path opacity=".4" d="M8.25 22.39c-.09 0-.19-.02-.28-.05-2.25-.9-4.07-2.49-5.29-4.59a10.6 10.6 0 0 1-1.341-6.73c.05-.41.44-.7.84-.65.41.05.7.43.65.84-.26 2.02.14 4.02 1.15 5.78a9.104 9.104 0 0 0 4.54 3.94c.38.16.57.59.42.98-.11.3-.4.48-.69.48ZM5.85 5.23c-.22 0-.44-.1-.59-.29-.26-.33-.2-.8.13-1.05C7.3 2.4 9.58 1.61 12 1.61c2.36 0 4.61.76 6.5 2.2A.749.749 0 1 1 17.59 5 9.111 9.111 0 0 0 12 3.11c-2.08 0-4.05.68-5.69 1.96-.14.11-.3.16-.46.16Zm9.9 17.16c-.3 0-.58-.18-.7-.47a.76.76 0 0 1 .42-.98c1.93-.78 3.5-2.14 4.54-3.94a9.044 9.044 0 0 0 1.15-5.78c-.05-.41.24-.79.65-.84.4-.05.79.24.84.65.3 2.35-.16 4.68-1.34 6.73-1.21 2.1-3.04 3.68-5.29 4.59-.08.02-.17.04-.27.04Z" fill="#292D32"/>
</svg>
